!! 00000] TT[00
!! NN
!!!OTL: Wuxi jing
!!!ARE: Asia, China,Jiangsu, Wuxi
!! Ethnic Group: Han
!! III, 498
!!!SCT: C0332
!!!YEM: Copyright 1995, estate of Helmut Schaffrath.
**kern
*ICvox
*Ivox
*M2/4
*k[]
*C:
{8a
16a
16g
8a
8dd
=1
16cc
16dd
16cc
16a
4g
=2
8a
16cc
16cc
16cc
16a
16g
16a
=3
2cc}
=4
{8cc
4cc
8dd
=5
8.ee
16dd
8.ee
16dd
=6
8.cc
16ee
8dd
8cc
=7
8.a
16cc
4g}
=8
{16a
16cc
16a
16g
4e
=9
8cc
4cc
8dd
=10
8.a
16cc
4g
=11
16a
16cc
16a
16g
4e}
=12
{8g
8g
8.a
16cc
=13
16g
16a
16g
16e
4d
=14
8e
16g
16g
16g
16a
8d
=15
16e
16g
16e
16d
4c}
==
!!!AGN: Xiaodiao
!! sehr heiter. Einige Tiere werden hier als Menschen besungen. Heisst
!!    im Norden "tan xing shui he".
!!    Vor- und Nachspiel weggelassen. Eine Verzierung.
!!    Pinyin-Text der ersten Strophe vorhanden!
!!!ONB: ESAC (Essen Associative Code) Database: CHINA_047
!!!AMT: simple duple
!!!AIN: vox
!!!EED: Helmut Schaffrath
!!!EEV: 1.0
*-
